X: 11399
T: East Clare, The
R: reel
M: 4/4
K: Dmixolydian
D2FA d2cA|GEED EFGB|Add^c d=cAB|1 cAGE EDCE:|2 cAGE EDD2||
aged cded|cBcd eg~g2|aged cded|cAGE EDD2|
edeg aged|dcAB c2Bc|ADFD EGAB|cAGE EDCE||

